public/images/stacks/selenium.svg

<svg xmlns="http://www.w3.org/2000/svg" xmlns:xlink="http://www.w3.org/1999/xlink" width="256" height="249" preserveAspectRatio="xMidYMid" version="1.1" viewBox="0 0 256 249"><defs><radialGradient id="radialGradient-1" cx="3.685%" cy="93.523%" r="105.029%" fx="3.685%" fy="93.523%"><stop offset="0%" stop-color="#212121"/><stop offset="100%" stop-color="#B8B8B8"/></radialGradient><linearGradient id="linearGradient-2" x1="50.878%" x2="50.878%" y1="134.662%" y2="0%"><stop offset="0%" stop-color="#4B4B4B"/><stop offset="100%" stop-color="#FFF"/></linearGradient><linearGradient id="linearGradient-3" x1="31.395%" x2="56.462%" y1="83.962%" y2="29.279%"><stop offset="0%" stop-color="#26761E"/><stop offset="100%" stop-color="#2CB134" stop-opacity=".996"/></linearGradient><radialGradient id="radialGradient-4" cx="30.638%" cy="48.591%" r="51.842%" fx="30.638%" fy="48.591%" gradientTransform="translate(0.306376,0.485912),scale(0.806967,1.000000),translate(-0.306376,-0.485912)"><stop offset="0%" stop-color="#FFF"/><stop offset="100%" stop-color="#FFF" stop-opacity="0"/></radialGradient></defs><g><path fill="url(#radialGradient-1)" fill-rule="nonzero" d="M45.5013451,18.7741272 L187.513532,18.7741272 C210.809424,18.7741272 229.694475,37.6591784 229.694475,60.9550697 L229.694475,202.967257 C229.694475,226.263148 210.809424,245.148199 187.513532,245.148199 L45.5013451,245.148199 C22.2054538,245.148199 3.32040256,226.263148 3.32040256,202.967257 L3.32040256,60.9550697 C3.32040256,37.6591784 22.2054538,18.7741272 45.5013451,18.7741272 Z"/><path fill="#2B2B2B" fill-rule="nonzero" d="M45.5013451,21.9243852 C23.9452933,21.9243852 6.47066058,39.3990179 6.47066058,60.9550697 L6.47066058,202.967257 C6.47066058,224.523309 23.9452933,241.997941 45.5013451,241.997941 L187.513532,241.997941 C209.069584,241.997941 226.544217,224.523309 226.544217,202.967257 L226.544217,60.9550697 C226.544217,39.3990179 209.069584,21.9243852 187.513532,21.9243852 L45.5013451,21.9243852 Z M45.5013451,15.6238691 L187.513532,15.6238691 C212.549263,15.6238691 232.844733,35.919339 232.844733,60.9550697 L232.844733,202.967257 C232.844733,228.002988 212.549263,248.298457 187.513532,248.298457 L45.5013451,248.298457 C20.4656144,248.298457 0.170144534,228.002988 0.170144534,202.967257 L0.170144534,60.9550697 C0.170144534,35.919339 20.4656144,15.6238691 45.5013451,15.6238691 Z"/><path fill="url(#linearGradient-2)" fill-rule="nonzero" d="M46.5611562,27.0960173 L185.624209,27.0960173 C205.622072,27.0960173 221.833544,43.3074889 221.833544,63.3053525 L221.833544,147.577609 C221.833544,167.575472 205.622072,183.786944 185.624209,183.786944 L46.5611562,183.786944 C26.5632925,183.786944 10.3518209,167.575472 10.3518209,147.577609 L10.3518209,63.3053525 C10.3518209,43.3074889 26.5632925,27.0960173 46.5611562,27.0960173 Z" opacity=".81"/><path fill="#EEE" fill-rule="nonzero" d="M99.5180603,140.180955 L78.7349954,147.134114 C75.9332981,138.882097 69.9989211,134.756051 60.9318538,134.755964 C51.2534316,134.756051 46.4142422,137.888788 46.4142712,144.154187 C46.4142422,146.650271 47.3184038,148.76423 49.1267668,150.496082 C50.9350646,152.228072 55.022903,153.730767 61.3903038,155.004173 C72.0364747,157.143671 79.8301177,159.308569 84.7712545,161.498879 C89.7122536,163.689312 93.876501,167.216825 97.2640147,172.081434 C100.651369,176.946143 102.345086,182.383862 102.345169,188.394612 C102.345086,197.81833 98.715694,205.968545 91.4569824,212.84528 C84.1981223,219.722031 73.4372944,223.160404 59.1744626,223.160404 C48.4772655,223.160404 39.3719465,220.728075 31.8584841,215.863408 C24.3449891,210.998756 19.3911864,203.778177 16.9970613,194.201648 L39.6139299,189.082289 C42.1608475,198.811639 49.2413476,203.676298 60.8554448,203.67628 C66.4586729,203.676298 70.6356587,202.593849 73.3864131,200.428926 C76.1370516,198.264046 77.5124017,195.678902 77.5124632,192.67348 C77.5124017,189.61718 76.2643998,187.248521 73.7684542,185.567506 C71.2723926,183.88656 66.4586729,182.307457 59.3272805,180.830188 C46.0322011,178.079532 36.557576,174.322792 30.9033796,169.55996 C25.2491544,164.797231 22.422049,157.831344 22.4220526,148.662282 C22.422049,139.391487 25.7967481,131.572374 32.5461574,125.204922 C39.2955376,118.837663 48.4517958,115.653986 60.0149537,115.653881 C80.4923249,115.653986 93.6600126,123.82967 99.5180603,140.180955 L99.5180603,140.180955 Z M181.401438,186.790039 L131.736022,186.790039 C131.685054,188.165421 131.659584,189.362484 131.659613,190.38123 C131.659584,195.882655 133.124078,200.034171 136.053095,202.835789 C138.982043,205.637443 142.484086,207.038263 146.559241,207.038248 C154.149083,207.038263 158.708106,202.988625 160.236332,194.889321 L180.866579,196.417489 C175.110414,214.246107 163.419951,223.160404 145.795155,223.160404 C138.103347,223.160404 131.570441,221.619505 126.196418,218.537699 C120.822348,215.455905 116.390669,210.960552 112.901367,205.05163 C109.412047,199.142741 107.667391,192.062245 107.667398,183.810112 C107.667391,171.533891 111.169439,161.626289 118.173544,154.087273 C125.177617,146.548392 134.181058,142.778917 145.183891,142.778841 C155.116919,142.778917 163.636439,146.280964 170.742474,153.284983 C177.848375,160.289143 181.401358,171.457482 181.401438,186.790039 L181.401438,186.790039 Z M131.659613,173.571397 L159.090205,173.571397 C158.377005,162.976165 154.021735,157.678526 146.024382,157.678465 C137.466613,157.678526 132.678363,162.976165 131.659613,173.571397 L131.659613,173.571397 Z"/><path fill="#232323" fill-rule="nonzero" d="M60.0149702,117.464348 C48.8890114,117.464449 40.1793647,120.492837 33.7885453,126.521836 C27.4016169,132.54732 24.2325159,139.890067 24.2325193,148.662283 C24.2325159,157.326433 26.8516604,163.77991 32.069767,168.175283 C37.4502231,172.707529 46.6671493,176.362089 59.6945222,179.057359 C67.0418102,180.57935 72.0348084,182.217266 74.7798113,184.065858 C77.7776605,186.084904 79.3228563,189.017623 79.32293,192.673517 C79.3228565,196.260372 77.6751558,199.357437 74.5061146,201.85162 C71.3885868,204.305205 66.8291473,205.486766 60.8554476,205.486747 C49.1317077,205.486765 41.4957752,200.679477 38.3598228,191.222425 L19.2396729,195.550297 C21.6711162,203.801218 26.1968196,210.040923 32.8424522,214.343673 C40.0478282,219.008865 48.8115278,221.349937 59.1744626,221.349937 C73.0097299,221.349937 83.3271511,218.053246 90.2118377,211.530973 C97.1155245,204.990579 100.534624,197.312601 100.534703,188.394637 C100.534624,182.752439 98.9534342,177.675988 95.7782855,173.116035 C92.5755842,168.516824 88.6681103,165.206823 84.0375633,163.154019 C79.2429281,161.02865 71.5609902,158.89478 61.0352618,156.779486 C54.3469685,155.441905 50.0076945,153.846783 47.8745331,151.803637 C45.7098934,149.730582 44.6037697,147.144431 44.6038044,144.154196 C44.6037699,136.682282 50.375893,132.945592 60.9318711,132.945497 C70.129521,132.945585 76.5253249,136.979548 79.8130635,144.864335 L97.1531292,139.063061 C91.2792874,124.630425 79.0217525,117.464445 60.0149702,117.464348 Z M77.6001083,149.422903 L77.0206424,147.716166 C74.4716776,140.208538 69.2334528,136.56651 60.93187,136.566431 C52.1309696,136.56651 48.2247146,139.095295 48.2247379,144.154208 C48.2247147,146.156112 48.9269155,147.797879 50.3790759,149.188599 C51.862435,150.609363 55.6988387,152.019629 61.7470107,153.229195 C72.5119751,155.392565 80.4173147,157.588491 85.5049973,159.843762 C90.7563965,162.171801 95.1774174,165.916826 98.7497767,171.04688 C102.349305,176.216301 104.155548,182.015288 104.155636,188.394628 C104.155548,198.324059 100.315864,206.94651 92.702115,214.1596 C85.0690902,221.390818 73.8648527,224.970871 59.1744626,224.970871 C48.1430018,224.970871 38.696064,222.447283 30.8745211,217.383147 C22.9649626,212.262062 17.7431726,204.650869 15.2406503,194.640749 L14.7916112,192.844587 L40.9219684,186.929945 L41.3653801,188.6238 C43.6926179,197.513963 50.0267497,201.86583 60.8554507,201.865813 C66.0882028,201.86583 69.8827327,200.882492 72.2666963,199.006244 C74.5989507,197.170651 75.7019468,195.097428 75.7019964,192.673516 C75.701947,190.216735 74.7511371,188.412137 72.7571578,187.069195 C70.5099786,185.555857 65.8755407,184.035564 58.9604761,182.603108 C45.3972567,179.796975 35.6649304,175.938056 29.7370103,170.944653 C23.6466496,165.814552 20.611582,158.336257 20.6115858,148.662283 C20.611582,138.892907 24.1918785,130.597428 31.3037864,123.887993 C38.4117091,117.18249 48.0145779,113.843523 60.014963,113.843414 C81.2187887,113.843523 95.0913284,122.456841 101.222448,139.570337 L101.846126,141.311182 L77.6001083,149.422903 Z M169.47157,154.574399 C162.703851,147.903838 154.640677,144.58938 145.183903,144.589308 C134.675102,144.58938 126.154725,148.15661 119.499927,155.319547 C112.823422,162.505942 109.477858,171.970844 109.477865,183.810113 C109.477858,191.752523 111.144315,198.515662 114.460316,204.131049 C117.794226,209.776825 122.002676,214.04574 127.097069,216.967153 C132.179896,219.881968 138.403601,221.349937 145.795155,221.349937 C161.88358,221.349937 172.65247,213.673662 178.389785,198.04945 L161.667244,196.810742 C159.674323,204.710049 154.529234,208.84873 146.559247,208.848715 C142.018547,208.848731 138.068035,207.268525 134.801671,204.144119 C131.480911,200.967797 129.849115,196.342015 129.849147,190.381281 C129.849117,189.338277 129.875052,188.119356 129.926797,186.722993 L129.991404,184.979572 L179.573787,184.979572 C179.305955,171.028653 175.908723,160.919385 169.47157,154.574399 Z M133.47008,190.381239 C133.470054,195.423293 134.767244,199.100544 137.304543,201.527482 C139.896053,204.006363 142.949629,205.227794 146.559244,205.227781 C153.251576,205.227794 157.085828,201.821949 158.457258,194.553635 L158.757139,192.964324 L183.297072,194.782099 L182.589475,196.973745 C176.596772,215.534991 164.22229,224.970871 145.795155,224.970871 C137.80309,224.970871 130.960983,223.357041 125.295775,220.108251 C119.642022,216.86607 114.987113,212.144281 111.342423,205.972219 C107.679777,199.769815 105.856924,192.371959 105.856932,183.810113 C105.856924,171.096942 109.515452,160.746638 116.847169,152.854991 C124.200511,144.940172 133.687015,140.968454 145.183905,140.968374 C155.593155,140.968454 164.569024,144.658086 172.013404,151.995592 C179.512808,159.387622 183.211823,171.01499 183.211905,186.790029 L183.211914,188.600505 L133.492225,188.600505 C133.477438,189.247252 133.470065,189.840907 133.47008,190.381239 Z M129.666717,175.381864 L129.857458,173.398117 C130.95905,161.941303 136.448322,155.868067 146.024396,155.867998 C155.092533,155.868068 160.125161,161.989627 160.896584,173.449804 L161.026638,175.381864 L129.666717,175.381864 Z M157.105862,171.76093 C156.107933,163.368875 152.474872,159.488981 146.024395,159.488931 C139.01715,159.488982 134.991951,163.395101 133.707198,171.76093 L157.105862,171.76093 Z"/><polygon fill="url(#linearGradient-3)" points="107.916 89.72 150.506 135.148 253.75 28.251 239.554 3.265 153.345 93.695 123.816 65.87"/><polygon fill="url(#radialGradient-4)" points="109.578 86.196 151.6 116.698 250.232 21.273 240.353 3.195 153.576 95.328 124.615 68.639"/><path fill="#000" fill-rule="nonzero" d="M239.924611,0.252128117 L255.993807,28.5339178 L150.485992,137.774768 L105.61305,89.9102984 L123.498274,63.0824672 L153.276421,91.1426393 L239.924611,0.252128117 Z M150.525033,132.522194 L251.50718,27.9671383 L239.183391,6.27726667 L153.413206,96.2467848 L124.133934,68.6567065 L110.219004,89.5290981 L150.525033,132.522194 Z"/></g></svg>

<svg xmlns="http://www.w3.org/2000/svg" width="256" height="249" preserveAspectRatio="xMidYMid" viewBox="0 0 256 249"><defs><radialGradient id="a" cx="3.685%" cy="93.523%" r="105.029%" fx="3.685%" fy="93.523%"><stop offset="0%" stop-color="#212121"/><stop offset="100%" stop-color="#B8B8B8"/></radialGradient><radialGradient id="d" cx="30.638%" cy="48.591%" r="51.842%" fx="30.638%" fy="48.591%" gradientTransform="matrix(.80697 0 0 1 .06 0)"><stop offset="0%" stop-color="#FFF"/><stop offset="100%" stop-color="#FFF" stop-opacity="0"/></radialGradient><linearGradient id="b" x1="50.878%" x2="50.878%" y1="134.662%" y2="0%"><stop offset="0%" stop-color="#4B4B4B"/><stop offset="100%" stop-color="#FFF"/></linearGradient><linearGradient id="c" x1="31.395%" x2="56.462%" y1="83.962%" y2="29.279%"><stop offset="0%" stop-color="#26761E"/><stop offset="100%" stop-color="#2CB134" stop-opacity=".996"/></linearGradient></defs><path fill="url(#a)" d="M45.501 18.774h142.013c23.295 0 42.18 18.885 42.18 42.181v142.012c0 23.296-18.885 42.181-42.18 42.181H45.5c-23.296 0-42.18-18.885-42.18-42.18V60.954c0-23.296 18.884-42.18 42.18-42.18Z"/><path fill="#2B2B2B" d="M45.501 21.924c-21.556 0-39.03 17.475-39.03 39.031v142.012c0 21.556 17.474 39.03 39.03 39.03h142.013c21.556 0 39.03-17.474 39.03-39.03V60.955c0-21.556-17.474-39.03-39.03-39.03H45.5Zm0-6.3h142.013c25.035 0 45.33 20.295 45.33 45.331v142.012c0 25.036-20.295 45.331-45.33 45.331H45.5c-25.035 0-45.33-20.295-45.33-45.33V60.954c0-25.036 20.295-45.331 45.33-45.331Z"/><path fill="url(#b)" d="M46.561 27.096h139.063c19.998 0 36.21 16.211 36.21 36.21v84.272c0 19.997-16.212 36.209-36.21 36.209H46.561c-19.998 0-36.21-16.212-36.21-36.21V63.306c0-19.998 16.212-36.209 36.21-36.209Z" opacity=".81"/><path fill="#EEE" d="m99.518 140.181-20.783 6.953c-2.802-8.252-8.736-12.378-17.803-12.378-9.679 0-14.518 3.133-14.518 9.398 0 2.496.904 4.61 2.713 6.342 1.808 1.732 5.896 3.235 12.263 4.508 10.646 2.14 18.44 4.305 23.381 6.495 4.941 2.19 9.106 5.718 12.493 10.582 3.387 4.865 5.081 10.303 5.081 16.314 0 9.423-3.63 17.574-10.888 24.45-7.259 6.877-18.02 10.315-32.283 10.315-10.697 0-19.802-2.432-27.316-7.297-7.513-4.864-12.467-12.085-14.86-21.661l22.616-5.12c2.547 9.73 9.627 14.594 21.241 14.594 5.604 0 9.78-1.082 12.531-3.247 2.751-2.165 4.126-4.75 4.126-7.756 0-3.056-1.248-5.424-3.744-7.105-2.496-1.681-7.31-3.26-14.44-4.738-13.296-2.75-22.77-6.507-28.425-11.27-5.654-4.763-8.481-11.729-8.48-20.898-.001-9.27 3.374-17.09 10.123-23.457 6.75-6.367 15.906-9.551 27.469-9.551 20.477 0 33.645 8.176 39.503 24.527Zm81.883 46.609h-49.665a98.555 98.555 0 0 0-.076 3.591c0 5.502 1.464 9.653 4.393 12.455 2.929 2.801 6.431 4.202 10.506 4.202 7.59 0 12.15-4.05 13.677-12.149l20.63 1.528c-5.756 17.83-17.446 26.743-35.07 26.743-7.693 0-14.226-1.54-19.6-4.622-5.374-3.082-9.805-7.577-13.295-13.486-3.489-5.91-5.234-12.99-5.234-21.242 0-12.276 3.502-22.184 10.507-29.723 7.004-7.539 16.007-11.308 27.01-11.308 9.933 0 18.452 3.502 25.558 10.506 7.106 7.004 10.66 18.172 10.66 33.505Zm-49.741-13.219h27.43c-.713-10.595-5.068-15.892-13.066-15.893-8.557 0-13.346 5.298-14.364 15.893Z"/><path fill="#232323" d="M60.015 117.464c-11.126 0-19.836 3.029-26.226 9.058-6.387 6.025-9.556 13.368-9.556 22.14 0 8.664 2.619 15.118 7.837 19.513 5.38 4.533 14.597 8.187 27.625 10.882 7.347 1.522 12.34 3.16 15.085 5.009 2.998 2.019 4.543 4.952 4.543 8.608 0 3.586-1.648 6.683-4.817 9.178-3.117 2.453-7.677 3.635-13.65 3.635-11.724 0-19.36-4.808-22.496-14.265l-19.12 4.328c2.431 8.251 6.957 14.49 13.602 18.794 7.206 4.665 15.97 7.006 26.332 7.006 13.836 0 24.153-3.297 31.038-9.819 6.904-6.54 10.323-14.218 10.323-23.136 0-5.643-1.582-10.719-4.757-15.279-3.202-4.6-7.11-7.91-11.74-9.962-4.795-2.125-12.477-4.26-23.003-6.375-6.688-1.337-11.027-2.932-13.16-4.975-2.165-2.073-3.271-4.66-3.271-7.65 0-7.472 5.772-11.208 16.328-11.209 9.198 0 15.593 4.035 18.881 11.92l17.34-5.802c-5.874-14.433-18.131-21.599-37.138-21.599ZM77.6 149.423l-.58-1.707c-2.548-7.507-7.787-11.15-16.088-11.15-8.801 0-12.707 2.53-12.707 7.588 0 2.002.702 3.644 2.154 5.035 1.483 1.42 5.32 2.83 11.368 4.04 10.765 2.164 18.67 4.36 23.758 6.615 5.251 2.328 9.672 6.073 13.245 11.203 3.6 5.17 5.406 10.968 5.406 17.348 0 9.93-3.84 18.552-11.454 25.765-7.633 7.23-18.837 10.81-33.528 10.81-11.031 0-20.478-2.523-28.3-7.587-7.909-5.12-13.13-12.732-15.633-22.742l-.45-1.796 26.131-5.915.443 1.694c2.328 8.89 8.662 13.242 19.49 13.242 5.233 0 9.028-.984 11.412-2.86 2.332-1.835 3.435-3.909 3.435-6.332 0-2.457-.95-4.262-2.945-5.605-2.247-1.513-6.881-3.033-13.797-4.466-13.563-2.806-23.295-6.665-29.223-11.658-6.09-5.13-9.125-12.609-9.125-22.283 0-9.77 3.58-18.065 10.692-24.774 7.108-6.706 16.71-10.044 28.711-10.045 21.204 0 35.076 8.614 41.207 25.727l.624 1.741-24.246 8.112Zm91.872 5.151c-6.768-6.67-14.831-9.985-24.288-9.985-10.509 0-19.03 3.568-25.684 10.73-6.677 7.187-10.022 16.652-10.022 28.491 0 7.943 1.666 14.706 4.982 20.321 3.334 5.646 7.543 9.915 12.637 12.836 5.083 2.915 11.307 4.383 18.698 4.383 16.089 0 26.857-7.676 32.595-23.3l-16.723-1.24c-1.993 7.9-7.138 12.039-15.108 12.039-4.54 0-8.491-1.58-11.757-4.705-3.321-3.176-4.953-7.802-4.953-13.763 0-1.043.026-2.262.078-3.658l.064-1.743h49.583c-.268-13.951-3.665-24.06-10.102-30.406Zm-36.002 35.807c0 5.042 1.297 8.72 3.835 11.146 2.591 2.48 5.645 3.7 9.254 3.7 6.693 0 10.527-3.405 11.898-10.673l.3-1.59 24.54 1.818-.708 2.192c-5.992 18.561-18.367 27.997-36.794 27.997-7.992 0-14.834-1.614-20.5-4.863-5.653-3.242-10.308-7.964-13.953-14.136-3.662-6.202-5.485-13.6-5.485-22.162 0-12.713 3.658-23.063 10.99-30.955 7.354-7.915 16.84-11.887 28.337-11.887 10.41 0 19.385 3.69 26.83 11.028 7.499 7.392 11.198 19.019 11.198 34.794v1.81h-49.72c-.015.647-.022 1.24-.022 1.781Zm-3.803-15 .19-1.983c1.102-11.457 6.591-17.53 16.167-17.53 9.069 0 14.101 6.122 14.873 17.582l.13 1.932h-31.36Zm27.439-3.62c-.998-8.392-4.631-12.272-11.082-12.272-7.007 0-11.032 3.906-12.317 12.272h23.399Z"/><path fill="url(#c)" d="m107.916 89.72 42.59 45.428L253.75 28.251 239.554 3.265l-86.209 90.43-29.529-27.825z"/><path fill="url(#d)" d="m109.578 86.196 42.022 30.502 98.632-95.425-9.879-18.078-86.777 92.133-28.961-26.689z"/><path d="m239.925.252 16.069 28.282-105.508 109.24-44.873-47.864 17.885-26.828 29.778 28.06L239.925.253Zm-89.4 132.27L251.507 27.967l-12.324-21.69-85.77 89.97-29.28-27.59-13.914 20.872 40.306 42.993Z"/></svg>
